picto/waiting-room-framed.svg

<svg class="color-immutable" width="30" height="30" viewBox="0 0 30 30" fill="none" xmlns="http://www.w3.org/2000/svg"><path d="M0 0H30V30H0V0Z" fill="#2D327D"/><path d="M25.5 3C26.325 3 27 3.675 27 4.5V25.5C27 26.325 26.325 27 25.5 27H4.5C3.675 27 3 26.325 3 25.5V4.5C3 3.675 3.675 3 4.5 3H25.5ZM25.5 2.625H4.5C3.46613 2.625 2.625 3.46613 2.625 4.5V25.5C2.625 26.5339 3.46613 27.375 4.5 27.375H25.5C26.5339 27.375 27.375 26.5339 27.375 25.5V4.5C27.375 3.46613 26.5339 2.625 25.5 2.625Z" fill="white"/><path d="M10.1257 19.5H6.37545C6.16822 19.5 6 19.6681 6 19.8741V24H6.74978V20.2511H9.7494V24H10.5V19.8741C10.4999 19.6681 10.3319 19.5 10.1257 19.5Z" fill="white"/><path d="M12.8505 17.9005C12.8013 17.5272 12.4836 17.2496 12.1063 17.2496H9.37507V14.6053L10.7128 16.5848C10.8308 16.7595 11.0287 16.8653 11.2405 16.8653C11.5926 16.8653 11.8777 16.5802 11.8777 16.2284C11.8777 16.1011 11.8397 15.9758 11.7691 15.8718L9.0165 11.7993C8.70982 11.3444 8.19795 11.0732 7.64992 11.0732C6.73875 11.0732 6 11.8123 6 12.7241V18C6 18.4131 6.33638 18.7502 6.74985 18.7502H11.4134L12.0247 23.3389C12.0758 23.7214 12.4009 24.0065 12.7864 24.0065C13.21 24.0065 13.5556 23.662 13.5556 23.2378C13.5556 23.2043 13.5538 23.1699 13.5481 23.1364L12.8505 17.9005Z" fill="white"/><path d="M23.2494 18.3364H20.9437V17.887C20.9437 17.536 20.6577 17.25 20.3055 17.25H18.8434C18.4922 17.25 18.2062 17.536 18.2062 17.887V18.3364H15.9004C15.4861 18.3364 15.1499 18.6743 15.1499 19.0876V23.2498C15.1499 23.664 15.4861 24 15.9004 24H23.2493C23.6637 24 23.9999 23.664 23.9999 23.2498V19.0876C24 18.6743 23.6638 18.3364 23.2494 18.3364ZM20.419 18.3364H18.7321V17.7755H20.419V18.3364Z" fill="white"/><path d="M21.0381 12.075C22.7566 12.075 24.15 10.6805 24.15 8.96296C24.15 7.24358 22.7566 5.85001 21.0381 5.85001C19.3194 5.85001 17.925 7.24358 17.925 8.96296C17.925 10.6805 19.3194 12.075 21.0381 12.075ZM21.0381 6.56303C22.3629 6.56303 23.4377 7.63808 23.4377 8.96296C23.4377 10.2869 22.3628 11.3621 21.0381 11.3621C19.7133 11.3621 18.6375 10.2869 18.6375 8.96296C18.6375 7.63808 19.7133 6.56303 21.0381 6.56303Z" fill="white"/><path d="M22.3952 7.81372C22.4296 7.77757 22.4501 7.73032 22.4501 7.68014C22.4501 7.57702 22.3664 7.49347 22.2624 7.49347C22.2121 7.49347 22.1657 7.51297 22.1294 7.54822L21.2145 8.46277L21.4801 8.72744L22.3952 7.81372Z" fill="white"/><path d="M20.9508 9.25859L21.2146 8.99294L19.77 7.54822C19.7356 7.51297 19.6872 7.49347 19.6371 7.49347C19.534 7.49347 19.4503 7.57709 19.4503 7.68014C19.4503 7.73024 19.4698 7.77757 19.5051 7.81372L20.9508 9.25859Z" fill="white"/><path d="M7.50015 10.575C8.32763 10.575 9 9.90204 9 9.07494C9 8.24709 8.32755 7.57501 7.50015 7.57501C6.67155 7.57501 6 8.24709 6 9.07494C6 9.90204 6.67155 10.575 7.50015 10.575Z" fill="white"/></svg>

<svg class="color-immutable" width="30" height="30" viewBox="0 0 30 30" fill="none" xmlns="http://www.w3.org/2000/svg"><g clip-path="url(#a)"><path d="M0 0h30v30H0V0Z" fill="#2D327D"/><path d="M25.5 3c.825 0 1.5.675 1.5 1.5v21c0 .825-.675 1.5-1.5 1.5h-21c-.825 0-1.5-.675-1.5-1.5v-21C3 3.675 3.675 3 4.5 3h21Zm0-.375h-21A1.877 1.877 0 0 0 2.625 4.5v21c0 1.034.841 1.875 1.875 1.875h21a1.877 1.877 0 0 0 1.875-1.875v-21A1.877 1.877 0 0 0 25.5 2.625Z" fill="#fff"/><path d="M10.126 19.5h-3.75a.375.375 0 0 0-.376.374V24h.75v-3.749h3V24h.75v-4.126a.375.375 0 0 0-.374-.374Z" fill="#fff"/><path d="M12.85 17.9a.749.749 0 0 0-.744-.65h-2.73v-2.645l1.337 1.98a.638.638 0 0 0 1.056-.713l-2.752-4.073A1.65 1.65 0 0 0 6 12.724V18c0 .413.336.75.75.75h4.663l.612 4.589a.768.768 0 1 0 1.523-.203l-.697-5.235ZM23.25 18.336h-2.306v-.449a.638.638 0 0 0-.639-.637h-1.462a.638.638 0 0 0-.637.637v.45H15.9a.752.752 0 0 0-.75.75v4.163c0 .414.336.75.75.75h7.35a.75.75 0 0 0 .75-.75v-4.162a.752.752 0 0 0-.75-.752Zm-2.831 0h-1.687v-.56h1.687v.56ZM21.038 12.075a3.113 3.113 0 1 0-.002-6.226 3.113 3.113 0 0 0 .002 6.226Zm0-5.512a2.4 2.4 0 1 1-.002 4.8 2.4 2.4 0 0 1 .002-4.8Z" fill="#fff"/><path d="M22.395 7.814a.187.187 0 0 0-.133-.32c-.05 0-.096.019-.133.054l-.915.915.266.264.915-.913ZM20.95 9.259l.265-.266-1.445-1.445a.187.187 0 1 0-.265.266l1.446 1.445ZM7.5 10.575a1.5 1.5 0 1 0-.002-2.998 1.5 1.5 0 0 0 .002 2.998Z" fill="#fff"/></g><defs><clipPath id="a"><path fill="#fff" d="M0 0h30v30H0z"/></clipPath></defs></svg>
